X: 17324
T: Hidden Ireland, The
R: jig
M: 6/8
K: Dmajor
DFA dcd|edc dAF|DFA dAF|Ac/B/A GFE|
D2 A dB/c/d|edc dAf|afd gec|dAf d2:|
afd gec|dcd AFD|fdB gec|dcB A2 f/g/|
a^ga ba=g|fd/e/f ecA|dcd AFD|GG/F/E D2:|

